X:1
T:Nilus, 98.98
T:Nilus, 98.98
T:Charles Hutchinson Gabriel, 1912
T:Public Domain Courtesy of the Cyber Hymnal™
C:Charles Hutchinson Gabriel, 1912
Z:Public Domain
Z:Courtesy of the Cyber Hymnal™
%%score ( 1 2 ) ( 3 4 )
L:1/8
Q:1/4=125
M:6/4
K:Eb
V:1 treble 
V:2 treble 
V:3 bass 
V:4 bass 
V:1
 [EG]2 | [GB]2 [GB]2 [GB]2 [AB]2 [AB]2 [AB]2 | [Be]6 [Ac]4 [Ac]2 | %3
 B2 [DA]2 [EG]2 [FB]2 [FA]2 [EG]2 | [DF]6- [DF]4 [EF]2 | [FB]2 [FB]2 [FB]2 [Fc]2 [Fc]2 [Fc]2 | %6
 [Fd]6 [FB]4 [FB]2 | [Ee]2 [EB]2 [EA]2 [EG]3 [EG] [DF]2 | E6- E4 |] %9
V:2
 x2 | x12 | x12 | B2 x10 | x12 | x12 | x12 | x12 | E6- E4 |] %9
V:3
 [E,B,]2 | [E,E]2 [E,E]2 [E,E]2 [F,D]2 [F,D]2 [F,D]2 | [G,E]6 [A,E]4 [A,E]2 | %3
 [A,E]2 [F,B,]2 [E,B,]2 [D,B,]2 [D,B,]2 [E,B,]2 | [B,,B,]6- [B,,B,]4 [C,=A,]2 | %5
 [D,B,]2 [D,B,]2 [D,B,]2 [F,=A,]2 [G,B,]2 [A,C]2 | B,6 [A,D]4 [A,D]2 | %7
 [G,B,]2 [G,E]2 [A,C]2 B,3 B, [B,,A,]2 | [E,G,]6- [E,G,]4 |] %9
V:4
 x2 | x12 | x12 | x12 | x12 | x12 | B,6 x6 | x6 B,3 B, x2 | x10 |] %9

